img/svg/icon-font/file-search.svg

<svg width="22" height="22" viewBox="0 0 22 22" fill="none" xmlns="http://www.w3.org/2000/svg">
<path d="M8.89453 21.1406C8.89453 21.6153 8.50983 22 8.03516 22H4.59766C2.70216 22 1.16016 20.458 1.16016 18.5625V6.22426C1.16016 5.33199 1.50609 4.49158 2.13417 3.85796L4.97195 0.994995C5.59869 0.362717 6.46881 0 7.35924 0H15.1633C17.0586 0 18.6008 1.54201 18.6008 3.4375V7.99219C18.6008 8.46686 18.2159 8.85156 17.7414 8.85156C17.2667 8.85156 16.882 8.46686 16.882 7.99219V3.4375C16.882 2.48984 16.1109 1.71875 15.1633 1.71875H7.35924C6.92418 1.71875 6.49886 1.896 6.1927 2.205L3.35492 5.06796C3.21611 5.20795 3.10583 5.36874 3.02644 5.54297H5.41406C6.12489 5.54297 6.70312 4.96457 6.70312 4.25391C6.70312 3.77924 7.08783 3.39453 7.5625 3.39453C8.03717 3.39453 8.42188 3.77924 8.42188 4.25391C8.42188 5.9124 7.07256 7.26172 5.41406 7.26172H2.87891V18.5625C2.87891 19.5102 3.64999 20.2812 4.59766 20.2812C4.59766 20.2812 7.56049 20.2812 8.03516 20.2812C8.50983 20.2812 8.89453 20.666 8.89453 21.1406Z" fill="#4C51CB"/>
<path d="M22 15.4796C22 17.9497 19.9627 19.9593 17.4587 19.9593C16.6106 19.9593 15.8162 19.7285 15.1362 19.3278L12.7227 21.7086C12.5258 21.9028 12.2674 22 12.0092 22C11.751 22 11.4926 21.9028 11.2957 21.7086C10.9014 21.3197 10.9014 20.6894 11.2957 20.3007L13.6749 17.9537C13.1965 17.2443 12.9174 16.3936 12.9174 15.4796C12.9174 13.0096 14.9547 11 17.4587 11C19.9627 11 22 13.0096 22 15.4796ZM19.9817 15.4796C19.9817 14.1074 18.8499 12.991 17.4587 12.991C16.0676 12.991 14.9358 14.1074 14.9358 15.4796C14.9358 16.8519 16.0676 17.9683 17.4587 17.9683C18.8499 17.9683 19.9817 16.8519 19.9817 15.4796Z" fill="#4C51CB"/>
</svg>

<svg width="22" height="22" fill="none" xmlns="http://www.w3.org/2000/svg"><path d="M8.895 21.14a.86.86 0 01-.86.86H4.598a3.441 3.441 0 01-3.438-3.438V6.225c0-.892.346-1.732.974-2.366L4.972.995A3.383 3.383 0 017.359 0h7.804a3.441 3.441 0 013.438 3.438v4.554a.86.86 0 01-1.719 0V3.438a1.72 1.72 0 00-1.719-1.72H7.36c-.435 0-.86.178-1.166.487L3.355 5.068c-.139.14-.25.3-.329.475h2.388c.71 0 1.29-.578 1.29-1.29a.86.86 0 111.718 0 3.011 3.011 0 01-3.008 3.009H2.88v11.3a1.72 1.72 0 001.719 1.72h3.437a.86.86 0 01.86.859z" fill="#4C51CB"/><path d="M22 15.48c0 2.47-2.037 4.48-4.541 4.48a4.571 4.571 0 01-2.323-.632l-2.413 2.38a1.013 1.013 0 01-.714.292c-.258 0-.516-.097-.713-.291a.986.986 0 010-1.408l2.379-2.347a4.41 4.41 0 01-.758-2.474c0-2.47 2.038-4.48 4.542-4.48S22 13.01 22 15.48zm-2.018 0c0-1.373-1.132-2.489-2.523-2.489-1.391 0-2.523 1.116-2.523 2.489 0 1.372 1.132 2.488 2.523 2.488 1.39 0 2.523-1.116 2.523-2.488z" fill="#4C51CB"/></svg>
